X:1374
T:The Dublin Reel
R:Reel
N:Collected by Delaney
B:O'Neill's 1374
Z:Transcribed by Trish O'Neil
M:C|
L:1/8
K:D
dF G3FEF dfec|dF G3FEF AFEF|dF G3FEF dfed|1cABG AFEA:|2cABc ABcd||
e23cBA EAcf|3efe dA BF G3FEF|e23cBA EAcA|3Bcd cA BG G3FEF|
e23cBA ecfc|eAcA BF G3FEF|d3c dfed|cABG AFEA|
d3c dAFA|dcdB AFEA|d2dc dfed|cABc AFEA|
d3c dAFA|dcdB AFEA|edcdfe2ae|fdBc dfec|]
